X:304
T:The Peat Bog Soldiers
Z:Jack Campin, http://www.campin.me.uk/
F:Jack Campin's Nine-Note Tunebook
% last edit 03-02-2013
C:Rudi Goguel
M:2/4
L:1/8
Q:1/4=88
K:GMin
   G2D2|G2BA|G2D2|G2G2|\
   c2A2|B2G2|A2D2|G4  |
   B2B2|B2dc|B2F2|B2B2|\
   c2A2|B2G2|A2D2|G2 ||
F2|d3d |d2B2|c4  |c2   \
c2|B2B2|B2G2|A4  |A2D2|G4-|G2|]

